X: 28815
T: My Old Clay Pipe
R: slip jig
M: 9/8
K: Amixolydian
|:fed eAA eAA|fed eAA BAG|fed eAA A2 c|def gdB BAA:|
g3 faf g2 f|eaa aga bge|gbg faf g2 c|def gdB BAA|
g3 faf g2 f|eaa aga bge|bag agf g2 c|def gdB BAA||

